assets/img/another/icon-1.svg

<svg width="63" height="96" viewBox="0 0 63 96" fill="none" xmlns="http://www.w3.org/2000/svg">
<g clip-path="url(#clip0_1184_3356)">
<path fill-rule="evenodd" clip-rule="evenodd" d="M31.5056 0C48.8986 0 63.0001 14.3045 63.0111 31.9591C63.0331 57.4191 47.4455 51.4673 47.3794 72.3601C47.3794 73.2981 46.6309 74.0575 45.7062 74.0575H33.5201V52.1038C41.0607 50.7079 47.5005 43.5724 48.4362 35.0522C48.8435 31.4231 48.183 28.073 46.741 25.326C38.2096 25.4824 30.4708 33.2097 29.4251 42.6232C29.2599 44.0972 29.2709 45.5266 29.4361 46.8777C29.5351 47.7264 29.6232 48.1619 29.6232 49.0218V74.0575H17.4481C16.5234 74.0575 15.7639 73.2981 15.7749 72.3601C15.929 52.0144 0.0551436 58.0556 0.000102522 31.9591C-0.0439303 14.3045 14.1016 0 31.5056 0ZM28.9847 38.0896C26.3428 34.0472 21.8184 31.3896 16.6775 31.3896C15.6868 31.3896 14.7071 31.4901 13.7714 31.6799C13.5732 32.6626 13.4631 33.6899 13.4631 34.7396C13.4631 43.0141 20.0681 49.7141 28.2252 49.7141H28.4343C27.4986 45.7164 27.7628 41.7076 28.9847 38.0896ZM34.9842 44.2647L34.5108 42.4892C34.4008 42.0872 33.9935 41.8416 33.5972 41.9532C33.2009 42.0649 32.9697 42.4781 33.0688 42.8801L33.9604 46.2747C34.0265 46.5092 34.1916 46.6991 34.4008 46.7772C34.5769 46.9224 34.8191 46.9782 35.0503 46.9112L38.3967 46.0067C38.793 45.8951 39.0242 45.4819 38.9251 45.0799C38.8151 44.6779 38.4078 44.4434 38.0115 44.5439L36.2612 45.0241L38.1215 41.7522H38.1436L42.1616 40.6579C42.6349 40.5239 42.9211 40.0326 42.8 39.5412C42.6679 39.0611 42.1836 38.7707 41.6992 38.8936L39.3875 39.5189L41.5231 35.7781L44.7155 34.9071C45.1118 34.7954 45.3429 34.3822 45.2439 33.9802C45.1338 33.5782 44.7265 33.3437 44.3302 33.4442L42.5799 33.9244L43.6146 32.0931C43.8238 31.7357 43.6917 31.2667 43.3394 31.0657C42.9872 30.8536 42.5248 30.9764 42.3267 31.3449L41.2919 33.1762L40.8186 31.4007C40.7085 30.9987 40.3012 30.7642 39.9049 30.8647C39.5086 30.9764 39.2774 31.3896 39.3765 31.7916L40.2351 35.0299L38.1105 38.7707L37.4941 36.4257C37.362 35.9456 36.8776 35.6552 36.3933 35.7781C35.9199 35.9121 35.6337 36.4034 35.7548 36.8947L36.8336 40.9706L36.8446 40.9929L34.9842 44.2647Z" fill="#81AF29"/>
<path fill-rule="evenodd" clip-rule="evenodd" d="M19.5171 77.8876H43.2288C44.3736 77.8876 45.3093 78.8368 45.3093 79.9981C45.3093 81.1595 44.3736 82.1086 43.2288 82.1086H19.5171C18.3722 82.1086 17.4365 81.1595 17.4365 79.9981C17.4475 78.8368 18.3722 77.8876 19.5171 77.8876Z" fill="#81AF29"/>
<path fill-rule="evenodd" clip-rule="evenodd" d="M19.5171 84.7105H43.2288C44.3736 84.7105 45.3093 85.6596 45.3093 86.821C45.3093 87.9823 44.3736 88.9315 43.2288 88.9315H19.5171C18.3722 88.9315 17.4365 87.9823 17.4365 86.821C17.4475 85.6596 18.3722 84.7105 19.5171 84.7105Z" fill="#81AF29"/>
<path fill-rule="evenodd" clip-rule="evenodd" d="M26.6069 91.7902H36.151C37.2959 91.7902 38.2316 92.7393 38.2316 93.9007C38.2316 95.062 37.2959 96.0112 36.151 96.0112H26.6069C25.4621 96.0112 24.5264 95.062 24.5264 93.9007C24.5264 92.7393 25.4621 91.7902 26.6069 91.7902Z" fill="#81AF29"/>
</g>
<defs>
<clipPath id="clip0_1184_3356">
<rect width="63" height="96" fill="white"/>
</clipPath>
</defs>
</svg>

<svg width="63" height="96" fill="none" xmlns="http://www.w3.org/2000/svg"><g clip-path="url(#clip0_1184_3356)" fill-rule="evenodd" clip-rule="evenodd" fill="#81AF29"><path d="M31.506 0C48.899 0 63 14.305 63.01 31.96c.022 25.46-15.566 19.507-15.632 40.4 0 .938-.748 1.698-1.673 1.698H33.52V52.104c7.54-1.396 13.98-8.532 14.916-17.052.407-3.629-.253-6.979-1.695-9.726-8.531.156-16.27 7.884-17.316 17.297a18.298 18.298 0 00.011 4.255c.1.848.187 1.284.187 2.144v25.036H17.448c-.925 0-1.684-.76-1.673-1.698C15.929 52.014.055 58.056 0 31.96-.044 14.304 14.102 0 31.506 0zm-2.521 38.09c-2.642-4.043-7.167-6.7-12.308-6.7-.99 0-1.97.1-2.906.29-.198.983-.308 2.01-.308 3.06 0 8.274 6.605 14.974 14.762 14.974h.21a21.175 21.175 0 01.55-11.624zm6 6.175l-.474-1.776a.746.746 0 00-.914-.536.769.769 0 00-.528.927l.891 3.395a.745.745 0 00.44.502.71.71 0 00.65.134l3.347-.904a.768.768 0 00.528-.927.755.755 0 00-.913-.536l-1.75.48 1.86-3.272h.022l4.018-1.094a.925.925 0 00.638-1.117.91.91 0 00-1.1-.647l-2.313.625 2.136-3.74 3.192-.872a.769.769 0 00.529-.927.755.755 0 00-.914-.536l-1.75.48 1.035-1.83a.756.756 0 00-.276-1.028.725.725 0 00-1.012.279l-1.035 1.831-.473-1.775a.755.755 0 00-.914-.536.769.769 0 00-.529.927l.86 3.238-2.125 3.74-.617-2.344a.91.91 0 00-1.1-.648.925.925 0 00-.64 1.117l1.08 4.076.01.022-1.86 3.272zM19.517 77.888H43.23c1.145 0 2.08.949 2.08 2.11s-.935 2.11-2.08 2.11H19.517c-1.145 0-2.08-.949-2.08-2.11.01-1.161.935-2.11 2.08-2.11zm0 6.822H43.23c1.145 0 2.08.95 2.08 2.111 0 1.161-.935 2.11-2.08 2.11H19.517c-1.145 0-2.08-.949-2.08-2.11.01-1.161.935-2.11 2.08-2.11zm7.09 7.08h9.544c1.145 0 2.08.95 2.08 2.11 0 1.162-.935 2.111-2.08 2.111h-9.544c-1.145 0-2.08-.949-2.08-2.11 0-1.162.935-2.11 2.08-2.11z"/></g><defs><clipPath id="clip0_1184_3356"><path fill="#fff" d="M0 0h63v96H0z"/></clipPath></defs></svg>
